Flat-Remix-Blue-Dark/apps/scalable/fslint_icon.svg

<svg xmlns="http://www.w3.org/2000/svg" xmlns:xlink="http://www.w3.org/1999/xlink" width="512" height="512" version="1.1" viewBox="0 0 384 384"> <defs> <filter id="alpha" width="100%" height="100%" x="0%" y="0%" filterUnits="objectBoundingBox"> <feColorMatrix in="SourceGraphic" type="matrix" values="0 0 0 0 1 0 0 0 0 1 0 0 0 0 1 0 0 0 1 0"/> </filter> <mask id="mask0"> <g filter="url(#alpha)"> <rect width="384" height="384" x="0" y="0" style="fill:rgb(0%,0%,0%);fill-opacity:0.2"/> </g> </mask> <clipPath id="clip1"> <rect width="384" height="384" x="0" y="0"/> </clipPath> <g id="surface5" clip-path="url(#clip1)"> <path style="fill:rgb(0%,0%,0%)" d="M 60 336 L 60 348 C 60 357.972656 68.027344 366 78 366 L 306 366 C 315.972656 366 324 357.972656 324 348 L 324 336 C 324 345.972656 315.972656 354 306 354 L 78 354 C 68.027344 354 60 345.972656 60 336 Z M 60 336"/> </g> <mask id="mask1"> <g filter="url(#alpha)"> <rect width="384" height="384" x="0" y="0" style="fill:rgb(0%,0%,0%);fill-opacity:0.101961"/> </g> </mask> <clipPath id="clip2"> <rect width="384" height="384" x="0" y="0"/> </clipPath> <g id="surface8" clip-path="url(#clip2)"> <path style="fill:rgb(100.000%,100.000%,100.000%)" d="M 78 24 C 68.027344 24 60 32.027344 60 42 L 60 48 C 60 38.027344 68.027344 30 78 30 L 306 30 C 315.972656 30 324 38.027344 324 48 L 324 42 C 324 32.027344 315.972656 24 306 24 Z M 78 24"/> </g> <mask id="mask2"> <g filter="url(#alpha)"> <rect width="384" height="384" x="0" y="0" style="fill:rgb(0%,0%,0%);fill-opacity:0.2"/> </g> </mask> <clipPath id="clip3"> <rect width="384" height="384" x="0" y="0"/> </clipPath> <g id="surface11" clip-path="url(#clip3)"> <path style="fill:rgb(0%,0%,0%)" d="M 225.875 164.125 C 207.027344 145.277344 176.957031 145.296875 158.128906 164.125 C 139.304688 182.949219 139.28125 213.023438 158.128906 231.871094 C 176.976562 250.71875 207.050781 250.695312 225.875 231.871094 C 244.703125 213.042969 244.722656 182.96875 225.875 164.125 Z M 225.875 164.125"/> </g> </defs> <g> <use mask="url(#mask0)" xlink:href="#surface5"/> <path style="fill:rgb(80.000%,80.000%,80.000%)" d="M 324 342 L 324 42 C 324 32.027344 315.972656 24 306 24 L 78 24 C 68.027344 24 60 32.027344 60 42 L 60 342 C 60 351.972656 68.027344 360 78 360 L 306 360 C 315.972656 360 324 351.972656 324 342 Z M 324 342"/> <use mask="url(#mask1)" xlink:href="#surface8"/> <path style="fill:rgb(29.803%,29.803%,29.803%)" d="M 242.914062 141.34375 C 271.03125 169.460938 271.03125 215.050781 242.914062 243.167969 C 214.792969 271.285156 169.207031 271.285156 141.089844 243.167969 C 112.972656 215.050781 112.972656 169.460938 141.089844 141.34375 C 169.207031 113.226562 214.792969 113.226562 242.914062 141.34375 Z M 242.914062 141.34375"/> <path style="fill:rgb(29.803%,29.803%,29.803%)" d="M 225.921875 226.175781 C 230.605469 221.488281 238.203125 221.488281 242.890625 226.175781 L 293.804688 277.085938 C 298.488281 281.773438 298.488281 289.371094 293.804688 294.058594 C 289.117188 298.742188 281.519531 298.742188 276.832031 294.058594 L 225.921875 243.144531 C 221.234375 238.460938 221.234375 230.863281 225.921875 226.175781 Z M 225.921875 226.175781"/> <use mask="url(#mask2)" xlink:href="#surface11"/> <path style="fill:rgb(29.019%,68.235%,90.196%)" d="M 225.875 158.125 C 207.027344 139.277344 176.957031 139.296875 158.128906 158.125 C 139.304688 176.949219 139.28125 207.023438 158.128906 225.871094 C 176.976562 244.71875 207.050781 244.695312 225.875 225.871094 C 244.703125 207.042969 244.722656 176.96875 225.875 158.125 Z M 225.875 158.125"/> </g> </svg>

<svg width="512" height="512" version="1.1" viewBox="0 0 384 384" xmlns="http://www.w3.org/2000/svg"><defs><clipPath><rect width="384" height="384"/></clipPath><clipPath><rect width="384" height="384"/></clipPath><clipPath><rect width="384" height="384"/></clipPath></defs><path d="m324 342v-300c0-9.9727-8.0273-18-18-18h-228c-9.9727 0-18 8.0273-18 18v300c0 9.9727 8.0273 18 18 18h228c9.9727 0 18-8.0273 18-18z" style="fill:#fff;opacity:.21;stroke-width:7.5;stroke:#000"/><path d="m324 342v-300c0-9.9727-8.0273-18-18-18h-228c-9.9727 0-18 8.0273-18 18v300c0 9.9727 8.0273 18 18 18h228c9.9727 0 18-8.0273 18-18z" style="fill:#fff"/><path d="m242.91 141.34c28.117 28.117 28.117 73.707 0 101.82-28.121 28.117-73.707 28.117-101.82 0-28.117-28.117-28.117-73.707 0-101.82 28.117-28.117 73.703-28.117 101.82 0z" style="fill:#4a4a4a"/><path d="m225.92 226.18c4.6836-4.6875 12.281-4.6875 16.969 0l50.914 50.91c4.6836 4.6875 4.6836 12.285 0 16.973-4.6875 4.6836-12.285 4.6836-16.973 0l-50.91-50.914c-4.6875-4.6836-4.6875-12.281 0-16.969z" style="fill:#4a4a4a"/><path d="m225.87 165.62c-18.848-18.848-48.918-18.828-67.746 0-18.824 18.824-18.848 48.898 0 67.746 18.848 18.848 48.922 18.824 67.746 0 18.828-18.828 18.848-48.902 0-67.746z" style="opacity:.3"/><path d="m225.88 158.12c-18.848-18.848-48.918-18.828-67.746 0-18.824 18.824-18.848 48.898 0 67.746 18.848 18.848 48.922 18.824 67.746 0 18.828-18.828 18.848-48.902 0-67.746z" style="fill:#4aaee6"/><path transform="scale(.75)" d="m104 32c-13.297 0-24 10.703-24 24v10c0-13.297 10.703-24 24-24h304c13.297 0 24 10.703 24 24v-10c0-13.297-10.703-24-24-24h-304z" style="opacity:.1;stroke-width:1.3333"/><path transform="scale(.75)" d="m80 446v10c0 13.297 10.703 24 24 24h304c13.297 0 24-10.703 24-24v-10c0 13.297-10.703 24-24 24h-304c-13.297 0-24-10.703-24-24z" style="opacity:.3;stroke-width:1.3333"/></svg>
